src/actions/16/view-split-top-bottom.svg

<svg viewBox="0 0 16 16" xmlns="http://www.w3.org/2000/svg">
 <defs>
  <style type="text/css">.ColorScheme-Text {
        color:#2e3440;
      }</style>
 </defs>
 <path class="ColorScheme-Text" d="m2 2v3 2 1h12v-1-2-3h-12zm1 3h3v2h-3v-2zm4 0h6v2h-6v-2zm-5 5v1 2 1h12v-1-2-1h-12zm1 1h3v2h-3v-2zm4 0h6v2h-6v-2z" fill="currentColor"/>
</svg>

<svg xmlns="http://www.w3.org/2000/svg" viewBox="0 0 16 16">
  <defs id="defs3051">
    <style type="text/css" id="current-color-scheme">
      .ColorScheme-Text {
        color:#2e3440;
      }
      </style>
  </defs>
 <path style="fill:currentColor;fill-opacity:1;stroke:none" 
       d="M 2 2 L 2 5 L 2 7 L 2 8 L 14 8 L 14 7 L 14 5 L 14 2 L 2 2 z M 3 5 L 6 5 L 6 7 L 3 7 L 3 5 z M 7 5 L 13 5 L 13 7 L 7 7 L 7 5 z M 2 10 L 2 11 L 2 13 L 2 14 L 14 14 L 14 13 L 14 11 L 14 10 L 2 10 z M 3 11 L 6 11 L 6 13 L 3 13 L 3 11 z M 7 11 L 13 11 L 13 13 L 7 13 L 7 11 z "
     class="ColorScheme-Text"
     />
</svg>
